svg/white/fil.svg

<svg xmlns="http://www.w3.org/2000/svg" width="32" height="32" viewBox="0 0 32 32">
  <path fill="#FFF" d="M16,32 C7.163444,32 0,24.836556 0,16 C0,7.163444 7.163444,0 16,0 C24.836556,0 32,7.163444 32,16 C32,24.836556 24.836556,32 16,32 Z M15.9320926,12.9075167 L11.7153448,12.289982 L11.4782996,13.9049384 L15.5987209,14.5081488 C15.5686906,14.6680998 15.5416896,14.8182078 15.5177352,14.9569889 C15.4958138,15.0839915 15.4810675,15.1743379 15.4735609,15.2228052 L15.2982307,16.2858382 L11.2017963,15.6863119 L10.9796459,17.3030962 L15.0162013,17.8946379 C14.1069762,22.3885942 13.3884834,24.3347804 12.4806409,25.3449535 C12.3899246,25.451048 12.102878,25.6093969 11.856097,25.6379809 C11.5149068,25.6775001 11.2365356,25.5068695 11.0250277,25.0075831 C10.8897496,24.6882029 10.7056603,24.4496 10.4835906,24.2864026 C10.1956735,24.0748145 9.89382669,24.0149297 9.59374218,24.0442738 C9.38908467,24.0161985 9.00652945,24.2953176 8.90553033,24.6451986 C8.76977173,25.1154934 9.08019872,25.6145826 9.85328018,26.0999711 C11.36783,27.0505358 12.822827,26.7570237 14.1199589,25.6025982 C14.8989926,24.9092714 15.6081189,23.8616207 15.7838317,23.4229052 C16.2392911,22.5436922 16.8832098,20.3169182 17.3722806,18.2392489 L21.6045274,18.8586989 L21.8415821,17.2440295 L17.705185,16.6381365 C17.7352232,16.4782997 17.7622515,16.3282858 17.7862483,16.1895799 C17.8082127,16.0626214 17.8230026,15.9723033 17.8305377,15.9238563 L18.0056878,14.8604087 L22.1020856,15.4602097 L22.3242295,13.8431209 L18.2879226,13.2523098 C18.8970729,10.2407236 19.3355459,8.78847537 19.812481,7.99539196 C19.9487415,7.76880792 20.0821864,7.59708216 20.2958413,7.3595383 C20.3300046,7.32155518 20.4869025,7.14950003 20.5310772,7.1003308 C20.6217992,6.9943592 20.9088941,6.83603733 21.1556853,6.80745446 C21.4969128,6.76793417 21.7752349,6.93856745 21.9866433,7.43792365 C22.1219924,7.75738884 22.3061712,7.99597692 22.5283594,8.15913214 C22.8162749,8.37055163 23.1180986,8.43037702 23.418183,8.40104145 C23.6228508,8.42911422 24.0053534,8.14999414 24.1063209,7.80012747 C24.2420305,7.32987419 23.9316236,6.83085728 23.1586495,6.34558071 L23.0257231,6.55731298 L23.1586261,6.34556597 C21.6440021,5.3949124 20.188967,5.68836065 18.8918843,6.84277847 C18.1128082,7.53616472 17.4032093,8.5846668 17.2280487,9.02279722 C16.7526772,9.94035269 16.3037997,11.345126 15.9320926,12.9075167 Z"/>
</svg>

<svg xmlns="http://www.w3.org/2000/svg" width="32" height="32"><path fill="#FFF" d="M16 32C7.163 32 0 24.837 0 16S7.163 0 16 0s16 7.163 16 16-7.163 16-16 16zm-.068-19.092l-4.217-.618-.237 1.615 4.12.603a31.19 31.19 0 0 0-.124.715l-.176 1.063-4.096-.6-.222 1.617 4.036.592c-.909 4.494-1.628 6.44-2.535 7.45-.091.106-.378.264-.625.293-.341.04-.62-.131-.831-.63a1.686 1.686 0 0 0-.541-.722 1.245 1.245 0 0 0-.89-.242c-.205-.028-.587.251-.688.601-.136.47.174.97.947 1.455 1.515.95 2.97.657 4.267-.497.779-.694 1.488-1.741 1.664-2.18.455-.88 1.1-3.106 1.588-5.184l4.233.62.237-1.615-4.137-.606a31.625 31.625 0 0 0 .126-.714l.175-1.064 4.096.6.222-1.617-4.036-.59c.61-3.012 1.048-4.465 1.524-5.258.137-.226.27-.398.484-.635l.235-.26c.09-.106.378-.264.625-.293.34-.04.62.132.83.63.136.32.32.559.542.722.288.212.59.271.89.242.205.028.587-.251.688-.6.136-.471-.174-.97-.947-1.455l-.133.211.133-.211c-1.515-.951-2.97-.658-4.267.497-.78.693-1.489 1.742-1.664 2.18-.475.917-.924 2.322-1.296 3.885z"/></svg>
